X: 10
T: No_10_Dance_Song_of_the_Young_Women.krn
N: Derived from No_10_Dance_Song_of_the_Young_Women.krn
%%abc-version 2.0
%%abcx-abcm2ps-target-version 5.9.1 (29 Sep 2008)
%%abc-creator hum2abc beta
%%abcx-conversion-date 2019/03/15 08:36:13
%%humdrum-veritas 3362704565
%%humdrum-veritas-data 4266245386
%%linebreak <none>
%%barnumbers 0
L: 1/4
M: 4/4
%%staves {1 2}
V: 1 clef=bass
V: 2 clef=bass
K: Eb
[V:1] [K:clef=bass][M:4/4]A,3z | 
[V:2] [K:clef=bass][M:4/4]G,,G,,G,,G,, | 
[V:1] G,3z ||  
[V:2] G,,G,,G,,G,, ||  
[V:1] [M:2/4]G,3/G,//A,// ||  
[V:2] [M:2/4]G,,G,, ||  
[V:1] [M:3/4]G,/F,/ F,/E,/ E,/ z/ ||  
[V:2] [M:3/4]G,,G,,G,, ||  
[V:1] [M:2/4]G,/F,/- F,/G,//A,// | 
[V:2] [M:2/4]G,,G,, | 
[V:1] G,/G,/ F,/F,/ | 
[V:2] G,,G,, | 
[V:1] E,3/E,/ | 
[V:2] G,,G,, | 
[V:1] E,/E,/ E,/ z/ ||  
[V:2] G,,G,, ||  
[V:1] [M:4/4]F,3z | 
[V:2] [M:4/4]G,,G,,G,,G,, | 
[V:1] G,3z ||  
[V:2] G,,G,,G,,G,, ||  
[V:1] [M:2/4]G,/G,/ F,/F,/ | 
[V:2] [M:2/4]G,,G,, | 
[V:1] E,z | 
[V:2] G,,G,, | 
[V:1] F,3/G,/ | 
[V:2] G,,G,, | 
[V:1] G,/G,/ F,/F,/ | 
[V:2] G,,G,, | 
[V:1] E,z/ E,/ | 
[V:2] G,,G,, | 
[V:1] E,/E,/ E,/E,/ | 
[V:2] G,,G,, | 
[V:1] E,z | 
[V:2] G,,G,, | 
[V:1] F,2 |]  
[V:2] G,,G,, |]  



